assets/1. Persons/Nose/Default/Color/Nose.Color.Default.svg

<svg width="100%" height="100%" viewBox="0 0 32 32" fill="none" xmlns="http://www.w3.org/2000/svg">
<g filter="url(#filter0_i_20020_4927)">
<path d="M13.0147 7.04176C13.3129 5.71131 14.4939 4.76562 15.8574 4.76562C17.2208 4.76562 18.4019 5.71131 18.7 7.04176L20.6308 15.8125C20.8574 16.6328 21.6482 17.1852 22.4667 17.2422C24.5995 17.3906 26.2734 19.035 26.2734 21.1406C26.2734 23.2462 24.5665 24.9531 22.4609 24.9531C22.4073 24.9531 22.3541 24.952 22.3011 24.9498C21.3317 24.9099 20.2573 25.2038 19.5464 25.864C18.5788 26.7629 17.2822 27.3125 15.8574 27.3125C14.4325 27.3125 13.1359 26.7629 12.1683 25.864C11.4575 25.2038 10.383 24.9099 9.41364 24.9498C9.36066 24.952 9.30737 24.9531 9.25385 24.9531C7.14825 24.9531 5.44135 23.2462 5.44135 21.1406C5.44135 19.035 7.11517 17.3906 9.24799 17.2422C10.0665 17.1852 10.8574 16.6328 11.0839 15.8125L13.0147 7.04176Z" fill="url(#paint0_linear_20020_4927)"/>
</g>
<path d="M13.0147 7.04176C13.3129 5.71131 14.4939 4.76562 15.8574 4.76562C17.2208 4.76562 18.4019 5.71131 18.7 7.04176L20.6308 15.8125C20.8574 16.6328 21.6482 17.1852 22.4667 17.2422C24.5995 17.3906 26.2734 19.035 26.2734 21.1406C26.2734 23.2462 24.5665 24.9531 22.4609 24.9531C22.4073 24.9531 22.3541 24.952 22.3011 24.9498C21.3317 24.9099 20.2573 25.2038 19.5464 25.864C18.5788 26.7629 17.2822 27.3125 15.8574 27.3125C14.4325 27.3125 13.1359 26.7629 12.1683 25.864C11.4575 25.2038 10.383 24.9099 9.41364 24.9498C9.36066 24.952 9.30737 24.9531 9.25385 24.9531C7.14825 24.9531 5.44135 23.2462 5.44135 21.1406C5.44135 19.035 7.11517 17.3906 9.24799 17.2422C10.0665 17.1852 10.8574 16.6328 11.0839 15.8125L13.0147 7.04176Z" fill="url(#paint1_linear_20020_4927)"/>
<path d="M13.0147 7.04176C13.3129 5.71131 14.4939 4.76562 15.8574 4.76562C17.2208 4.76562 18.4019 5.71131 18.7 7.04176L20.6308 15.8125C20.8574 16.6328 21.6482 17.1852 22.4667 17.2422C24.5995 17.3906 26.2734 19.035 26.2734 21.1406C26.2734 23.2462 24.5665 24.9531 22.4609 24.9531C22.4073 24.9531 22.3541 24.952 22.3011 24.9498C21.3317 24.9099 20.2573 25.2038 19.5464 25.864C18.5788 26.7629 17.2822 27.3125 15.8574 27.3125C14.4325 27.3125 13.1359 26.7629 12.1683 25.864C11.4575 25.2038 10.383 24.9099 9.41364 24.9498C9.36066 24.952 9.30737 24.9531 9.25385 24.9531C7.14825 24.9531 5.44135 23.2462 5.44135 21.1406C5.44135 19.035 7.11517 17.3906 9.24799 17.2422C10.0665 17.1852 10.8574 16.6328 11.0839 15.8125L13.0147 7.04176Z" fill="url(#paint2_radial_20020_4927)"/>
<path d="M13.0147 7.04176C13.3129 5.71131 14.4939 4.76562 15.8574 4.76562C17.2208 4.76562 18.4019 5.71131 18.7 7.04176L20.6308 15.8125C20.8574 16.6328 21.6482 17.1852 22.4667 17.2422C24.5995 17.3906 26.2734 19.035 26.2734 21.1406C26.2734 23.2462 24.5665 24.9531 22.4609 24.9531C22.4073 24.9531 22.3541 24.952 22.3011 24.9498C21.3317 24.9099 20.2573 25.2038 19.5464 25.864C18.5788 26.7629 17.2822 27.3125 15.8574 27.3125C14.4325 27.3125 13.1359 26.7629 12.1683 25.864C11.4575 25.2038 10.383 24.9099 9.41364 24.9498C9.36066 24.952 9.30737 24.9531 9.25385 24.9531C7.14825 24.9531 5.44135 23.2462 5.44135 21.1406C5.44135 19.035 7.11517 17.3906 9.24799 17.2422C10.0665 17.1852 10.8574 16.6328 11.0839 15.8125L13.0147 7.04176Z" fill="url(#paint3_radial_20020_4927)"/>
<path d="M13.0147 7.04176C13.3129 5.71131 14.4939 4.76562 15.8574 4.76562C17.2208 4.76562 18.4019 5.71131 18.7 7.04176L20.6308 15.8125C20.8574 16.6328 21.6482 17.1852 22.4667 17.2422C24.5995 17.3906 26.2734 19.035 26.2734 21.1406C26.2734 23.2462 24.5665 24.9531 22.4609 24.9531C22.4073 24.9531 22.3541 24.952 22.3011 24.9498C21.3317 24.9099 20.2573 25.2038 19.5464 25.864C18.5788 26.7629 17.2822 27.3125 15.8574 27.3125C14.4325 27.3125 13.1359 26.7629 12.1683 25.864C11.4575 25.2038 10.383 24.9099 9.41364 24.9498C9.36066 24.952 9.30737 24.9531 9.25385 24.9531C7.14825 24.9531 5.44135 23.2462 5.44135 21.1406C5.44135 19.035 7.11517 17.3906 9.24799 17.2422C10.0665 17.1852 10.8574 16.6328 11.0839 15.8125L13.0147 7.04176Z" fill="url(#paint4_radial_20020_4927)"/>
<path d="M13.0147 7.04176C13.3129 5.71131 14.4939 4.76562 15.8574 4.76562C17.2208 4.76562 18.4019 5.71131 18.7 7.04176L20.6308 15.8125C20.8574 16.6328 21.6482 17.1852 22.4667 17.2422C24.5995 17.3906 26.2734 19.035 26.2734 21.1406C26.2734 23.2462 24.5665 24.9531 22.4609 24.9531C22.4073 24.9531 22.3541 24.952 22.3011 24.9498C21.3317 24.9099 20.2573 25.2038 19.5464 25.864C18.5788 26.7629 17.2822 27.3125 15.8574 27.3125C14.4325 27.3125 13.1359 26.7629 12.1683 25.864C11.4575 25.2038 10.383 24.9099 9.41364 24.9498C9.36066 24.952 9.30737 24.9531 9.25385 24.9531C7.14825 24.9531 5.44135 23.2462 5.44135 21.1406C5.44135 19.035 7.11517 17.3906 9.24799 17.2422C10.0665 17.1852 10.8574 16.6328 11.0839 15.8125L13.0147 7.04176Z" fill="url(#paint5_radial_20020_4927)"/>
<path d="M11.2962 25.2986C10.7089 25.0374 10.0394 24.924 9.41364 24.9498C9.36066 24.952 9.30737 24.9531 9.25385 24.9531C8.8274 24.9531 8.4173 24.8831 8.03442 24.7539C7.62977 24.6174 7.51374 24.1151 7.85724 23.8613C8.2178 23.595 8.66372 23.4375 9.14642 23.4375C10.2404 23.4375 11.1454 24.2463 11.2962 25.2986Z" fill="url(#paint6_radial_20020_4927)"/>
<path d="M11.2962 25.2986C10.7089 25.0374 10.0394 24.924 9.41364 24.9498C9.36066 24.952 9.30737 24.9531 9.25385 24.9531C8.8274 24.9531 8.4173 24.8831 8.03442 24.7539C7.62977 24.6174 7.51374 24.1151 7.85724 23.8613C8.2178 23.595 8.66372 23.4375 9.14642 23.4375C10.2404 23.4375 11.1454 24.2463 11.2962 25.2986Z" fill="url(#paint7_radial_20020_4927)"/>
<path d="M23.8575 23.8613C24.201 24.1151 24.085 24.6174 23.6803 24.7539C23.2974 24.8831 22.8873 24.9531 22.4609 24.9531C22.4073 24.9531 22.3541 24.952 22.3011 24.9498C21.6753 24.924 21.0058 25.0374 20.4185 25.2986C20.5693 24.2463 21.4743 23.4375 22.5683 23.4375C23.051 23.4375 23.4969 23.595 23.8575 23.8613Z" fill="url(#paint8_radial_20020_4927)"/>
<path d="M23.8575 23.8613C24.201 24.1151 24.085 24.6174 23.6803 24.7539C23.2974 24.8831 22.8873 24.9531 22.4609 24.9531C22.4073 24.9531 22.3541 24.952 22.3011 24.9498C21.6753 24.924 21.0058 25.0374 20.4185 25.2986C20.5693 24.2463 21.4743 23.4375 22.5683 23.4375C23.051 23.4375 23.4969 23.595 23.8575 23.8613Z" fill="url(#paint9_radial_20020_4927)"/>
<g filter="url(#filter1_f_20020_4927)">
<path d="M15.5219 19.5011L15.9813 7.40367C16.005 6.77967 16.6402 6.36786 17.2195 6.60089C17.4896 6.7095 17.6906 6.94171 17.7594 7.22451L20.6229 18.9871C21.0196 20.6167 19.7854 22.1875 18.1082 22.1875C16.6403 22.1875 15.4662 20.968 15.5219 19.5011Z" fill="#FFEF5E"/>
</g>
<g filter="url(#filter2_f_20020_4927)">
<path d="M23.2588 22.0312H18.9199C18.5402 22.0312 18.2324 21.7234 18.2324 21.3438C18.2324 20.9641 18.5402 20.6562 18.9199 20.6562H21.7953C22.4399 20.6562 22.9319 20.08 22.8308 19.4434C22.7243 18.7722 23.2966 18.1588 23.9064 18.4588C24.5679 18.7842 24.9777 19.3022 25.2178 19.8659C25.7162 21.036 24.5306 22.0312 23.2588 22.0312Z" fill="url(#paint10_linear_20020_4927)"/>
</g>
<g filter="url(#filter3_f_20020_4927)">
<path d="M10.7214 18.9821L10.3796 22.1917C10.3173 22.7767 9.75335 23.1834 9.25085 22.8775C8.26596 22.2779 7.51271 21.1475 7.70116 19.875C7.86515 18.7676 8.92754 18.2356 9.84382 18.0569C10.3811 17.9521 10.7794 18.4378 10.7214 18.9821Z" fill="#FFC129"/>
</g>
<defs>
<filter id="filter0_i_20020_4927" x="5.44135" y="4.76562" width="21.082" height="22.7969" filterUnits="userSpaceOnUse" color-interpolation-filters="sRGB">
<feFlood flood-opacity="0" result="BackgroundImageFix"/>
<feBlend mode="normal" in="SourceGraphic" in2="BackgroundImageFix" result="shape"/>
<feColorMatrix in="SourceAlpha" type="matrix" values="0 0 0 0 0 0 0 0 0 0 0 0 0 0 0 0 0 0 127 0" result="hardAlpha"/>
<feOffset dx="0.25" dy="0.25"/>
<feGaussianBlur stdDeviation="1"/>
<feComposite in2="hardAlpha" operator="arithmetic" k2="-1" k3="1"/>
<feColorMatrix type="matrix" values="0 0 0 0 0.807843 0 0 0 0 0.654902 0 0 0 0 0.411765 0 0 0 1 0"/>
<feBlend mode="normal" in2="shape" result="effect1_innerShadow_20020_4927"/>
</filter>
<filter id="filter1_f_20020_4927" x="13.02" y="4.03491" width="10.1776" height="20.6526" filterUnits="userSpaceOnUse" color-interpolation-filters="sRGB">
<feFlood flood-opacity="0" result="BackgroundImageFix"/>
<feBlend mode="normal" in="SourceGraphic" in2="BackgroundImageFix" result="shape"/>
<feGaussianBlur stdDeviation="1.25" result="effect1_foregroundBlur_20020_4927"/>
</filter>
<filter id="filter2_f_20020_4927" x="16.7324" y="16.8806" width="10.1019" height="6.65067" filterUnits="userSpaceOnUse" color-interpolation-filters="sRGB">
<feFlood flood-opacity="0" result="BackgroundImageFix"/>
<feBlend mode="normal" in="SourceGraphic" in2="BackgroundImageFix" result="shape"/>
<feGaussianBlur stdDeviation="0.75" result="effect1_foregroundBlur_20020_4927"/>
</filter>
<filter id="filter3_f_20020_4927" x="5.67212" y="16.0425" width="7.05487" height="8.93948" filterUnits="userSpaceOnUse" color-interpolation-filters="sRGB">
<feFlood flood-opacity="0" result="BackgroundImageFix"/>
<feBlend mode="normal" in="SourceGraphic" in2="BackgroundImageFix" result="shape"/>
<feGaussianBlur stdDeviation="1" result="effect1_foregroundBlur_20020_4927"/>
</filter>
<linearGradient id="paint0_linear_20020_4927" x1="15.8574" y1="12.7069" x2="15.8574" y2="28.3125" gradientUnits="userSpaceOnUse">
<stop stop-color="#F4B829"/>
<stop offset="1" stop-color="#F99F3C"/>
</linearGradient>
<linearGradient id="paint1_linear_20020_4927" x1="22.6699" y1="14" x2="14.2324" y2="18.1875" gradientUnits="userSpaceOnUse">
<stop stop-color="#FFDC4A"/>
<stop offset="1" stop-color="#FFDC4A" stop-opacity="0"/>
</linearGradient>
<radialGradient id="paint2_radial_20020_4927" cx="0" cy="0" r="1" gradientUnits="userSpaceOnUse" gradientTransform="translate(14.4383 27.7523) rotate(-70.7287) scale(4.29976 10.248)">
<stop stop-color="#DD8153"/>
<stop offset="1" stop-color="#DD8153" stop-opacity="0"/>
</radialGradient>
<radialGradient id="paint3_radial_20020_4927" cx="0" cy="0" r="1" gradientUnits="userSpaceOnUse" gradientTransform="translate(22.3624 24.886) rotate(-91.2731) scale(2.15998 3.02294)">
<stop stop-color="#DB918F"/>
<stop offset="1" stop-color="#DB918F" stop-opacity="0"/>
</radialGradient>
<radialGradient id="paint4_radial_20020_4927" cx="0" cy="0" r="1" gradientUnits="userSpaceOnUse" gradientTransform="translate(9.32576 25.2859) rotate(-75.1546) scale(2.74701 3.38784)">
<stop stop-color="#CF8084"/>
<stop offset="1" stop-color="#CF8084" stop-opacity="0"/>
</radialGradient>
<radialGradient id="paint5_radial_20020_4927" cx="0" cy="0" r="1" gradientUnits="userSpaceOnUse" gradientTransform="translate(12.1397 7.10442) rotate(13.134) scale(2.32704 9.84866)">
<stop stop-color="#DBA43D"/>
<stop offset="1" stop-color="#DBA43D" stop-opacity="0"/>
</radialGradient>
<radialGradient id="paint6_radial_20020_4927" cx="0" cy="0" r="1" gradientUnits="userSpaceOnUse" gradientTransform="translate(10.9199 25.2986) rotate(-147.524) scale(3.00046 3.72867)">
<stop stop-color="#DD763D"/>
<stop offset="1" stop-color="#E36043"/>
<stop offset="1" stop-color="#E8693D"/>
</radialGradient>
<radialGradient id="paint7_radial_20020_4927" cx="0" cy="0" r="1" gradientUnits="userSpaceOnUse" gradientTransform="translate(9.48071 25.5) rotate(-103.938) scale(2.20556 3.79711)">
<stop offset="0.652848" stop-color="#E36349" stop-opacity="0"/>
<stop offset="1" stop-color="#E15F4A"/>
</radialGradient>
<radialGradient id="paint8_radial_20020_4927" cx="0" cy="0" r="1" gradientUnits="userSpaceOnUse" gradientTransform="translate(21.0292 25.2986) rotate(-49.6861) scale(2.58414 3.21131)">
<stop stop-color="#F59233"/>
<stop offset="1" stop-color="#E36043"/>
</radialGradient>
<radialGradient id="paint9_radial_20020_4927" cx="0" cy="0" r="1" gradientUnits="userSpaceOnUse" gradientTransform="translate(22.5761 25.5) rotate(-103.938) scale(2.20556 3.79711)">
<stop offset="0.652848" stop-color="#E36349" stop-opacity="0"/>
<stop offset="1" stop-color="#E36349"/>
</radialGradient>
<linearGradient id="paint10_linear_20020_4927" x1="25.5136" y1="20.0781" x2="17.5833" y2="20.0781" gradientUnits="userSpaceOnUse">
<stop stop-color="#FFEF5E"/>
<stop offset="1" stop-color="#FFEF5E" stop-opacity="0"/>
</linearGradient>
</defs>
</svg>

<svg width="100%" height="100%" viewBox="0 0 32 32" xmlns="http://www.w3.org/2000/svg"><g filter="url(#a)"><path fill="url(#b)" d="M13.015 7.042a2.913 2.913 0 0 1 5.685 0l1.93 8.77c.227.82 1.018 1.373 1.837 1.43 2.133.149 3.806 1.793 3.806 3.899a3.81 3.81 0 0 1-3.972 3.809c-.97-.04-2.044.254-2.755.914a5.4 5.4 0 0 1-3.689 1.448 5.4 5.4 0 0 1-3.689-1.448c-.71-.66-1.785-.954-2.754-.914l-.16.003a3.81 3.81 0 0 1-3.813-3.812c0-2.106 1.674-3.75 3.807-3.899.819-.057 1.61-.61 1.836-1.43z"/></g><path fill="url(#c)" d="M13.015 7.042a2.913 2.913 0 0 1 5.685 0l1.93 8.77c.227.82 1.018 1.373 1.837 1.43 2.133.149 3.806 1.793 3.806 3.899a3.81 3.81 0 0 1-3.972 3.809c-.97-.04-2.044.254-2.755.914a5.4 5.4 0 0 1-3.689 1.448 5.4 5.4 0 0 1-3.689-1.448c-.71-.66-1.785-.954-2.754-.914l-.16.003a3.81 3.81 0 0 1-3.813-3.812c0-2.106 1.674-3.75 3.807-3.899.819-.057 1.61-.61 1.836-1.43z"/><path fill="url(#d)" d="M13.015 7.042a2.913 2.913 0 0 1 5.685 0l1.93 8.77c.227.82 1.018 1.373 1.837 1.43 2.133.149 3.806 1.793 3.806 3.899a3.81 3.81 0 0 1-3.972 3.809c-.97-.04-2.044.254-2.755.914a5.4 5.4 0 0 1-3.689 1.448 5.4 5.4 0 0 1-3.689-1.448c-.71-.66-1.785-.954-2.754-.914l-.16.003a3.81 3.81 0 0 1-3.813-3.812c0-2.106 1.674-3.75 3.807-3.899.819-.057 1.61-.61 1.836-1.43z"/><path fill="url(#e)" d="M13.015 7.042a2.913 2.913 0 0 1 5.685 0l1.93 8.77c.227.82 1.018 1.373 1.837 1.43 2.133.149 3.806 1.793 3.806 3.899a3.81 3.81 0 0 1-3.972 3.809c-.97-.04-2.044.254-2.755.914a5.4 5.4 0 0 1-3.689 1.448 5.4 5.4 0 0 1-3.689-1.448c-.71-.66-1.785-.954-2.754-.914l-.16.003a3.81 3.81 0 0 1-3.813-3.812c0-2.106 1.674-3.75 3.807-3.899.819-.057 1.61-.61 1.836-1.43z"/><path fill="url(#f)" d="M13.015 7.042a2.913 2.913 0 0 1 5.685 0l1.93 8.77c.227.82 1.018 1.373 1.837 1.43 2.133.149 3.806 1.793 3.806 3.899a3.81 3.81 0 0 1-3.972 3.809c-.97-.04-2.044.254-2.755.914a5.4 5.4 0 0 1-3.689 1.448 5.4 5.4 0 0 1-3.689-1.448c-.71-.66-1.785-.954-2.754-.914l-.16.003a3.81 3.81 0 0 1-3.813-3.812c0-2.106 1.674-3.75 3.807-3.899.819-.057 1.61-.61 1.836-1.43z"/><path fill="url(#g)" d="M13.015 7.042a2.913 2.913 0 0 1 5.685 0l1.93 8.77c.227.82 1.018 1.373 1.837 1.43 2.133.149 3.806 1.793 3.806 3.899a3.81 3.81 0 0 1-3.972 3.809c-.97-.04-2.044.254-2.755.914a5.4 5.4 0 0 1-3.689 1.448 5.4 5.4 0 0 1-3.689-1.448c-.71-.66-1.785-.954-2.754-.914l-.16.003a3.81 3.81 0 0 1-3.813-3.812c0-2.106 1.674-3.75 3.807-3.899.819-.057 1.61-.61 1.836-1.43z"/><path fill="url(#h)" d="M11.296 25.299a4.3 4.3 0 0 0-1.882-.35 3.9 3.9 0 0 1-1.38-.195c-.404-.137-.52-.639-.177-.893a2.172 2.172 0 0 1 3.439 1.437"/><path fill="url(#i)" d="M11.296 25.299a4.3 4.3 0 0 0-1.882-.35 3.9 3.9 0 0 1-1.38-.195c-.404-.137-.52-.639-.177-.893a2.172 2.172 0 0 1 3.439 1.437"/><path fill="url(#j)" d="M23.858 23.861c.343.254.227.756-.178.893a3.8 3.8 0 0 1-1.379.196 4.3 4.3 0 0 0-1.882.349 2.172 2.172 0 0 1 3.439-1.438"/><path fill="url(#k)" d="M23.858 23.861c.343.254.227.756-.178.893a3.8 3.8 0 0 1-1.379.196 4.3 4.3 0 0 0-1.882.349 2.172 2.172 0 0 1 3.439-1.438"/><g filter="url(#l)"><path fill="#FFEF5E" d="m15.522 19.501.46-12.097a.902.902 0 0 1 1.777-.18l2.864 11.763a2.588 2.588 0 1 1-5.101.514"/></g><g filter="url(#m)"><path fill="url(#n)" d="M23.259 22.031h-4.34a.687.687 0 1 1 0-1.375h2.876c.645 0 1.137-.576 1.036-1.213-.107-.67.466-1.284 1.075-.984a2.7 2.7 0 0 1 1.312 1.407c.498 1.17-.687 2.165-1.96 2.165"/></g><g filter="url(#o)"><path fill="#FFC129" d="m10.721 18.982-.341 3.21c-.063.585-.627.991-1.13.686-.984-.6-1.737-1.73-1.549-3.003.164-1.107 1.227-1.64 2.143-1.818.537-.105.935.38.877.925"/></g><defs><radialGradient id="d" cx="0" cy="0" r="1" gradientTransform="matrix(1.4191 -4.05883 9.67377 3.38227 14.438 27.752)" gradientUnits="userSpaceOnUse"><stop stop-color="#DD8153"/><stop offset="1" stop-color="#DD8153" stop-opacity="0"/></radialGradient><radialGradient id="e" cx="0" cy="0" r="1" gradientTransform="rotate(-91.273 23.35 1.508)scale(2.15998 3.02294)" gradientUnits="userSpaceOnUse"><stop stop-color="#DB918F"/><stop offset="1" stop-color="#DB918F" stop-opacity="0"/></radialGradient><radialGradient id="f" cx="0" cy="0" r="1" gradientTransform="matrix(.70382 -2.65532 3.27476 .868 9.326 25.286)" gradientUnits="userSpaceOnUse"><stop stop-color="#CF8084"/><stop offset="1" stop-color="#CF8084" stop-opacity="0"/></radialGradient><radialGradient id="g" cx="0" cy="0" r="1" gradientTransform="matrix(2.26617 .52877 -2.2379 9.59103 12.14 7.104)" gradientUnits="userSpaceOnUse"><stop stop-color="#DBA43D"/><stop offset="1" stop-color="#DBA43D" stop-opacity="0"/></radialGradient><radialGradient id="h" cx="0" cy="0" r="1" gradientTransform="matrix(-2.53124 -1.61109 2.0021 -3.14557 10.92 25.299)" gradientUnits="userSpaceOnUse"><stop stop-color="#DD763D"/><stop offset="1" stop-color="#E36043"/><stop offset="1" stop-color="#E8693D"/></radialGradient><radialGradient id="i" cx="0" cy="0" r="1" gradientTransform="matrix(-.53126 -2.14062 3.68531 -.91462 9.48 25.5)" gradientUnits="userSpaceOnUse"><stop offset=".653" stop-color="#E36349" stop-opacity="0"/><stop offset="1" stop-color="#E15F4A"/></radialGradient><radialGradient id="j" cx="0" cy="0" r="1" gradientTransform="rotate(-49.686 37.836 -10.062)scale(2.58414 3.21131)" gradientUnits="userSpaceOnUse"><stop stop-color="#F59233"/><stop offset="1" stop-color="#E36043"/></radialGradient><radialGradient id="k" cx="0" cy="0" r="1" gradientTransform="rotate(-103.938 21.26 3.921)scale(2.20556 3.79711)" gradientUnits="userSpaceOnUse"><stop offset=".653" stop-color="#E36349" stop-opacity="0"/><stop offset="1" stop-color="#E36349"/></radialGradient><filter id="a" width="21.082" height="22.797" x="5.441" y="4.766" color-interpolation-filters="sRGB" filterUnits="userSpaceOnUse"><feFlood flood-opacity="0" result="BackgroundImageFix"/><feBlend in="SourceGraphic" in2="BackgroundImageFix" result="shape"/><feColorMatrix in="SourceAlpha" result="hardAlpha" values="0 0 0 0 0 0 0 0 0 0 0 0 0 0 0 0 0 0 127 0"/><feOffset dx=".25" dy=".25"/><feGaussianBlur stdDeviation="1"/><feComposite in2="hardAlpha" k2="-1" k3="1" operator="arithmetic"/><feColorMatrix values="0 0 0 0 0.807843 0 0 0 0 0.654902 0 0 0 0 0.411765 0 0 0 1 0"/><feBlend in2="shape" result="effect1_innerShadow_20020_4927"/></filter><filter id="l" width="10.178" height="20.653" x="13.02" y="4.035" color-interpolation-filters="sRGB" filterUnits="userSpaceOnUse"><feFlood flood-opacity="0" result="BackgroundImageFix"/><feBlend in="SourceGraphic" in2="BackgroundImageFix" result="shape"/><feGaussianBlur result="effect1_foregroundBlur_20020_4927" stdDeviation="1.25"/></filter><filter id="m" width="10.102" height="6.651" x="16.732" y="16.881" color-interpolation-filters="sRGB" filterUnits="userSpaceOnUse"><feFlood flood-opacity="0" result="BackgroundImageFix"/><feBlend in="SourceGraphic" in2="BackgroundImageFix" result="shape"/><feGaussianBlur result="effect1_foregroundBlur_20020_4927" stdDeviation=".75"/></filter><filter id="o" width="7.055" height="8.939" x="5.672" y="16.043" color-interpolation-filters="sRGB" filterUnits="userSpaceOnUse"><feFlood flood-opacity="0" result="BackgroundImageFix"/><feBlend in="SourceGraphic" in2="BackgroundImageFix" result="shape"/><feGaussianBlur result="effect1_foregroundBlur_20020_4927" stdDeviation="1"/></filter><linearGradient id="b" x1="15.857" x2="15.857" y1="12.707" y2="28.313" gradientUnits="userSpaceOnUse"><stop stop-color="#F4B829"/><stop offset="1" stop-color="#F99F3C"/></linearGradient><linearGradient id="c" x1="22.67" x2="14.232" y1="14" y2="18.188" gradientUnits="userSpaceOnUse"><stop stop-color="#FFDC4A"/><stop offset="1" stop-color="#FFDC4A" stop-opacity="0"/></linearGradient><linearGradient id="n" x1="25.514" x2="17.583" y1="20.078" y2="20.078" gradientUnits="userSpaceOnUse"><stop stop-color="#FFEF5E"/><stop offset="1" stop-color="#FFEF5E" stop-opacity="0"/></linearGradient></defs></svg>
